X: 32051
T: Peggy's Warning
R: waltz
M: 3/4
K: Gminor
G3 A B2|^c2 d4|=cB A2 BA|G2 D4|G3 A B2|^c2 d4|d=c B2 A2|G6||
d2 c2 B2|f4 A2|B2 c2 d2|d4 c2|d2 edcB|f4 A2|B2 Bc d2|edcB A2||
G3 A B2|^c2 d4|=cB A2 BA|G2 D4|G3 A B2|^c2 d2 Hg2|d=c B2 A2|G6||

